X:1
T:Title
L:1/8
Q:1/4=100
M:4/4
K:Bb
V:1 treble nm="Grand Piano"
V:1
 z DDE F2 G2 | A2 AG G2 GF | z GGF F E2 E | F2 G2 FE D2 | D2 E2 F2 G2 | A2 AG G2 GF | %6
 z GGF F E2 E | F2 G2 FE D2 | z BBA A G2 F | AGFE F2 ED | z BBA A G2 F | AGFE F2 ED |] %12

